X:220
T:score295
L:1/8
Q:1/4=120
M:4/4
I:linebreak $
K:D
 z d'e'f' e'd' e'>c' | b4 z e' f'g' | f'e' f'>d' c'2 d'2 | e'2 f'g' a'4- | a'2 a'2 f'4- | %5
 f'f' f'>d' af d'c' | ba e'2- e'>d' d'2- | d'4 z4 |] %8
